Numix/16/devices/input-gaming.svg

<?xml version="1.0" encoding="UTF-8" standalone="no"?>
<svg
   xmlns:dc="http://purl.org/dc/elements/1.1/"
   xmlns:cc="http://creativecommons.org/ns#"
   xmlns:rdf="http://www.w3.org/1999/02/22-rdf-syntax-ns#"
   xmlns:svg="http://www.w3.org/2000/svg"
   xmlns="http://www.w3.org/2000/svg"
   xmlns:sodipodi="http://sodipodi.sourceforge.net/DTD/sodipodi-0.dtd"
   xmlns:inkscape="http://www.inkscape.org/namespaces/inkscape"
   width="16"
   height="16"
   viewBox="0 0 16 16"
   id="svg2"
   version="1.1"
   inkscape:version="0.91 r"
   sodipodi:docname="input-gaming.svg">
  <metadata
     id="metadata16">
    <rdf:RDF>
      <cc:Work
         rdf:about="">
        <dc:format>image/svg+xml</dc:format>
        <dc:type
           rdf:resource="http://purl.org/dc/dcmitype/StillImage" />
        <dc:title />
      </cc:Work>
    </rdf:RDF>
  </metadata>
  <defs
     id="defs14" />
  <sodipodi:namedview
     pagecolor="#ffffff"
     bordercolor="#666666"
     borderopacity="1"
     objecttolerance="10"
     gridtolerance="10"
     guidetolerance="10"
     inkscape:pageopacity="0"
     inkscape:pageshadow="2"
     inkscape:window-width="1920"
     inkscape:window-height="1056"
     id="namedview12"
     showgrid="true"
     inkscape:zoom="16"
     inkscape:cx="-3.3345452"
     inkscape:cy="-3.4596417"
     inkscape:window-x="0"
     inkscape:window-y="24"
     inkscape:window-maximized="1"
     inkscape:current-layer="svg2">
    <inkscape:grid
       type="xygrid"
       id="grid2993" />
  </sodipodi:namedview>
  <path
     style="fill:#deddc9;fill-opacity:1;fill-rule:evenodd;stroke:none;stroke-width:1px;stroke-linecap:butt;stroke-linejoin:miter;stroke-opacity:1"
     d="M 3.8353366,2.4630849 C 3.3927335,2.4812346 3.0284599,2.6706947 2.7776443,2.8609294 1.2947304,3.985658 -4e-8,8.6773581 -4e-8,11.160365 c 0,2.483007 0.57082154,2.377448 1.06610584,2.377448 0.4952837,0 1.117992,-0.340594 1.6622597,-0.819726 C 4.230904,11.395364 4.9230148,9.9999999 6.4170671,9.9999999 l 3.1658659,0 c 1.494052,0 2.186163,1.3953641 3.688702,2.7180871 0.544267,0.479132 1.166976,0.819726 1.662259,0.819726 C 15.429179,13.537813 16,13.643372 16,11.160365 16,8.6773581 14.70527,3.985658 13.222356,2.8609294 12.821051,2.5565544 12.130367,2.253407 11.289663,2.6529926 10.725911,2.9209433 10.222019,3 9.4855766,3 L 6.5144234,3 C 5.7779809,3 5.2740892,2.9209433 4.7103366,2.6529926 4.3950726,2.5031476 4.1008985,2.4521959 3.8353366,2.4630849 Z"
     id="path4200"
     inkscape:connector-curvature="0"
     sodipodi:nodetypes="sssssccsssssccss" />
  <ellipse
     style="opacity:1;fill:#3b3b3b;fill-opacity:1;fill-rule:nonzero;stroke:none;stroke-width:1.5;stroke-linecap:round;stroke-linejoin:miter;stroke-miterlimit:4;stroke-dasharray:none;stroke-dashoffset:0;stroke-opacity:1"
     id="path4208"
     cx="3.75"
     cy="6.2499766"
     rx="1.25"
     ry="1.2500235" />
  <ellipse
     style="opacity:1;fill:#df8003;fill-opacity:1;fill-rule:nonzero;stroke:none;stroke-width:1.5;stroke-linecap:round;stroke-linejoin:miter;stroke-miterlimit:4;stroke-dasharray:none;stroke-dashoffset:0;stroke-opacity:1"
     id="path4210"
     cx="12.75"
     cy="5.2499905"
     rx="0.5"
     ry="0.50000942" />
  <ellipse
     cy="6.4999905"
     cx="14"
     id="circle4212"
     style="opacity:1;fill:#e45146;fill-opacity:1;fill-rule:nonzero;stroke:none;stroke-width:1.5;stroke-linecap:round;stroke-linejoin:miter;stroke-miterlimit:4;stroke-dasharray:none;stroke-dashoffset:0;stroke-opacity:1"
     rx="0.5"
     ry="0.50000942" />
  <ellipse
     style="opacity:1;fill:#68bf45;fill-opacity:1;fill-rule:nonzero;stroke:none;stroke-width:1.5;stroke-linecap:round;stroke-linejoin:miter;stroke-miterlimit:4;stroke-dasharray:none;stroke-dashoffset:0;stroke-opacity:1"
     id="circle4214"
     cx="12.75"
     cy="7.7499905"
     rx="0.5"
     ry="0.50000942" />
  <ellipse
     cy="6.4999905"
     cx="11.5"
     id="circle4216"
     style="opacity:1;fill:#5b6dc1;fill-opacity:1;fill-rule:nonzero;stroke:none;stroke-width:1.5;stroke-linecap:round;stroke-linejoin:miter;stroke-miterlimit:4;stroke-dasharray:none;stroke-dashoffset:0;stroke-opacity:1"
     rx="0.5"
     ry="0.50000942" />
  <circle
     style="opacity:1;fill:none;fill-opacity:1;fill-rule:nonzero;stroke:#3b3b3b;stroke-width:0.5;stroke-linecap:round;stroke-linejoin:miter;stroke-miterlimit:4;stroke-dasharray:none;stroke-dashoffset:0;stroke-opacity:1"
     id="path4218"
     cx="8"
     cy="6.5"
     r="0.5" />
  <ellipse
     style="opacity:1;fill:#3b3b3b;fill-opacity:1;fill-rule:nonzero;stroke:none;stroke-width:1.5;stroke-linecap:round;stroke-linejoin:miter;stroke-miterlimit:4;stroke-dasharray:none;stroke-dashoffset:0;stroke-opacity:1"
     id="circle4220"
     cx="6.5"
     cy="6.4999905"
     rx="0.5"
     ry="0.50000936" />
  <circle
     cy="6.5"
     cx="9.5"
     id="circle4222"
     style="opacity:1;fill:#3b3b3b;fill-opacity:1;fill-rule:nonzero;stroke:none;stroke-width:1.5;stroke-linecap:round;stroke-linejoin:miter;stroke-miterlimit:4;stroke-dasharray:none;stroke-dashoffset:0;stroke-opacity:1"
     r="0.5" />
  <path
     style="opacity:0.4;fill:#ffffff;fill-opacity:1;fill-rule:nonzero;stroke:none;stroke-width:0.5;stroke-linecap:round;stroke-linejoin:miter;stroke-miterlimit:4;stroke-dasharray:none;stroke-dashoffset:0;stroke-opacity:1"
     d="M 12 2.4785156 L 12 11.457031 C 12.377291 11.856616 12.775613 12.282222 13.271484 12.71875 C 13.505404 12.924675 13.753445 13.097625 14 13.236328 L 14 3.8203125 C 13.749915 3.415824 13.491746 3.0654216 13.222656 2.8613281 C 12.942411 2.6487724 12.51503 2.4509704 12 2.4785156 z "
     id="rect4218" />
</svg>

<svg xmlns="http://www.w3.org/2000/svg" viewBox="0 0 16 16">
 <path d="m 3.835 2.463 c -0.443 0.018 -0.807 0.208 -1.058 0.398 -1.483 1.125 -2.778 5.816 -2.778 8.299 c 0 2.483 0.571 2.377 1.066 2.377 0.495 0 1.118 -0.341 1.662 -0.82 c 1.503 -1.323 2.195 -2.718 3.689 -2.718 l 3.166 0 c 1.494 0 2.186 1.395 3.689 2.718 0.544 0.479 1.167 0.82 1.662 0.82 c 0.495 0 1.066 0.106 1.066 -2.377 0 -2.483 -1.295 -7.175 -2.778 -8.299 -0.401 -0.304 -1.092 -0.608 -1.933 -0.208 -0.564 0.268 -1.068 0.347 -1.804 0.347 l -2.971 0 c -0.736 0 -1.24 -0.079 -1.804 -0.347 -0.315 -0.15 -0.609 -0.201 -0.875 -0.19" style="fill:#deddc9;fill-opacity:1;stroke:none;fill-rule:evenodd"/>
 <ellipse cx="3.75" cy="6.25" rx="1.25" ry="1.25" style="fill:#3b3b3b;opacity:1;fill-opacity:1;stroke:none;fill-rule:nonzero"/>
 <ellipse cx="12.75" cy="5.25" rx="0.5" ry="0.5" style="fill:#df8003;opacity:1;fill-opacity:1;stroke:none;fill-rule:nonzero"/>
 <ellipse cy="6.5" cx="14" rx="0.5" ry="0.5" style="fill:#e45146;opacity:1;fill-opacity:1;stroke:none;fill-rule:nonzero"/>
 <ellipse cx="12.75" cy="7.75" rx="0.5" ry="0.5" style="fill:#68bf45;opacity:1;fill-opacity:1;stroke:none;fill-rule:nonzero"/>
 <ellipse cy="6.5" cx="11.5" rx="0.5" ry="0.5" style="fill:#5b6dc1;opacity:1;fill-opacity:1;stroke:none;fill-rule:nonzero"/>
 <circle cx="8" cy="6.5" r="0.5" style="stroke-dasharray:none;stroke-opacity:1;fill:none;opacity:1;stroke-miterlimit:4;fill-opacity:1;stroke:#3b3b3b;fill-rule:nonzero;stroke-linecap:round;stroke-linejoin:miter;stroke-width:0.5;stroke-dashoffset:0"/>
 <ellipse cx="6.5" cy="6.5" rx="0.5" ry="0.5" style="fill:#3b3b3b;opacity:1;fill-opacity:1;stroke:none;fill-rule:nonzero"/>
 <circle cy="6.5" cx="9.5" r="0.5" style="fill:#3b3b3b;opacity:1;fill-opacity:1;stroke:none;fill-rule:nonzero"/>
 <path d="m 12 2.479 l 0 8.979 c 0.377 0.4 0.776 0.825 1.271 1.262 c 0.234 0.206 0.482 0.379 0.729 0.518 l 0 -9.416 c -0.25 -0.404 -0.508 -0.755 -0.777 -0.959 c -0.28 -0.213 -0.708 -0.41 -1.223 -0.383 z" style="fill:#fff;opacity:0.4;fill-opacity:1;stroke:none;fill-rule:nonzero"/>
</svg>
